icons/clapperboard-line.svg

<svg viewBox="0 0 24 24" fill="currentColor" xmlns="http://www.w3.org/2000/svg">
    <path d="M5.99807 7L8.30747 3H11.9981L9.68867 7H5.99807ZM11.9981 7L14.3075 3H17.9981L15.6887 7H11.9981ZM17.9981 7L20.3075 3H21.0082C21.556 3 22 3.44495 22 3.9934V20.0066C22 20.5552 21.5447 21 21.0082 21H2.9918C2.44405 21 2 20.5551 2 20.0066V3.9934C2 3.44476 2.45531 3 2.9918 3H5.99807L4 6.46076V19H20V7H17.9981Z"/>
</svg>

<svg xmlns="http://www.w3.org/2000/svg" viewBox="0 0 24 24">
    <g>
        <path fill="none" d="M0 0h24v24H0z"/>
        <path d="M5.998 7l2.31-4h3.69l-2.31 4h-3.69zm6 0l2.31-4h3.69l-2.31 4h-3.69zm6 0l2.31-4h.7c.548 0 .992.445.992.993v16.014a1 1 0 0 1-.992.993H2.992A.993.993 0 0 1 2 20.007V3.993A1 1 0 0 1 2.992 3h3.006L4 6.46V19h16V7h-2.002z"/>
    </g>
</svg>
